X: 179
T: Captain Jinks
Q: "(A Game Song. For Directions: See page 9)
%R: air, jig
B: "The Everyday Song Book", 1927
F: http://www.library.pitt.edu/happybirthday/pdf/The_Everyday_Song_Book.pdf
Z: 2017 John Chambers <jc:trillian.mit.edu>
M: 6/8
L: 1/8
K: A
% - - - - - - - - - - - - - - - - - - - - - - - - - - - - -
"^I"(A/B/) | c2 E E2 E/- E/ | F2 E/- E/ A2 c | B2 d F- F G |
w: 1.~I'm* Cap-tain Jinks of the horse ma - rines, I feed my horse* on
w: 3.~Sa-*lute your part-ner and turn to the right, And swing your neigh-bor with
%
A2 B c2 (A/B/) | c2 E E2 E | F2 E A2 c | B2 d F F G |
w: corn and beans, And* swing the la-dies in their teens, for that's the style in the
w: all your might, Then* prom-e-nade the la-dies right,   for that's the style in the
%
A3 "^Fine."A2 |] "^II"A | d2 d d2 d | d2 c c2 z | c2 B B2 z | B2 A A2 A |
w: ar-my.  2.~I teach the la-dies how to dance, how to dance, how to dance, I
%
d2 d d2 d | d2 c c2 c | c2 B B c ^d | e3 "^D.C."E2 |]
w: teach the la-dies how to dance, for that's the style in the ar-my.
% - - - - - - - - - - - - - - - - - - - - - - - - - - - - -
